X: 19798
T: Jeremy Is Coming
R: jig
M: 6/8
K: Dmajor
DFA BAF|EGB B2A|DFA BAF|EBB AFD|
DFA BAF|EGB B2A|dcd ABF|EBB AFD:|
|:dcd fed|cEG B2A|dcd fed|cA^G ABc|
dcd fed|cEG B2A|dcd ABF|EBB AFD:|

